X:1
T:the Earl of Seafield
T:the Earl of Seafield
T:William Marshall
C:William Marshall
%%score { ( 1 2 ) ( 3 4 ) }
L:1/8
M:3/4
K:F
V:1 treble 
V:2 treble 
V:3 bass 
V:4 bass 
V:1
"^moderato"!f! [Ff]3 [Fc]/f/ [GBe]/d/c/B/ | a3 f/e/ g/f/e/f/ | b2 b/a/c'/b/ a/g/f/e/ | c'4 c>^c | %4
 d2{de} e2 g>f | c2 B2 A2 | G/A/B/c/ ^c/d/e/d/ d/D/B/>G/ | F2 E>G F/E/D/C/ | f3 c/f/ e/d/c/B/ | %9
 a3 f/e/ g/f/e/f/ | b2 b/a/c'/b/ a/g/f/e/ | c'4 c>^c | d2{de} e2{g} f2 | c2 B2 [CA]F/f/ | %14
 e/d/c/B/ A2 [EA]/G/F/>G/ | [B,CG]4 [A,CF]2 || [E,B,C]>[E,B,C] [E,B,C]2 [E,B,C]2 | %17
 b2{b} a/g/a/b/ a>g | gc ef b>a | a2 g>f f/e/{e}d/c/ | [F,C]>[F,C] [F,C]2 [F,C]2 | %21
 [cc']2 b/a/b/c'/ a>g | gc eg b>a | [cfa]2 [ceg]>c [Fd]/c/=B/c/ | fF Ac [cf]>_e | %25
 [Bd]>_e [Ac]>d Bd | gG =Bd g>f | [ce]>f [Bd]>e c>d | aA cf ag | ba c'=b d'd | %30
 f/g/a/b/ a2 [Ba]/g/f/>g/ | [Bcg]4 [Acf]2 |] %32
V:2
 x6 |{A} A3 c c2 | c4 c2 |{a} c4 F2 | F2 B2 A2 | G2 G2 F2 | D2 G2 x2 | C2 C4 |{F} F3 E B2 | %9
{A} A3 c c2 | c4 c2 |{c} c4 F2 | F2 B2 A2 | G2 E2 x2 | F2 F2 B,2 | x6 || x6 | x6 | x6 | c2 c2 c2 | %20
 x6 | x6 | x6 | x6 | x6 | x6 | x6 | x6 | x6 | x6 | x6 | x6 |] %32
V:3
 [Ff]2 [Aa]2 [cc']2 | [Ff]2 [Aa]2 [Ff]2 | [Ee]2 [Cc]2 [Bb]2 | [Aa]2 [Ff]2 [Aa]2 | %4
 [Bb]2 [Gg]2 [Ff]2 | [Ee]2 [Cc]2 [Ff]2 | [Bb]2 [Gg]2 [Bb]2 | [ca]2 [cg]4 | [Ff]2 [Aa]2 [cc']2 | %9
 [Ff]2 [Aa]2 [Ff]2 | [Ee]2 [Cc]2 [Bb]2 | [Aa]2 [Ff]2 [Aa]2 | [Bb]2 [Gg]2 [Ff]2 | %13
 [Ee]2 [Cc]2 [Ff][Aa] | [Bb]2 [cc']2 [Cc]2 | F4 x2 || CcEcGc | cc'fc'ac' | %18
 [cgbc']2 [cgbc']2 [cgbc']2 | [cfc']2 [cec']2 [cg]2 | Ffcfcf | ff'[gb]f'[ca]f' | %22
 [be'g']2 [be'g']2 [ac'g'c'']2 | c'cc'b ag | [fac']2 [fac']2 [af']2 | [bf']2 [c'f']2 [d'f']2 | %26
 [g=bd']2 [gd']2 [ba']2 | [c'g']2 [d'g']2 [e'g']2 | [efc'f']2 [fc'f']2 [fc'f']2 | %29
 [gc'e']2 [ac'f']2 [bd'f']2 | [c'f'a']2 [c'f'a']2 [cc']2 | f6 |] %32
V:4
 x6 | x6 | x6 | x6 | x6 | x6 | x6 | x6 | x6 | x6 | x6 | x6 | x6 | x6 | x6 | x2 C,2 F,2 || C,,6 | %17
 C,6 | x6 | x6 | F,,6 | F,6 | x6 | x4 C2 | x6 | x6 | x6 | x6 | x6 | x6 | x6 | x2 C2 F2 |] %32

